!!!OTL: WIR FAHREN AUF DIE SEE
!!!ARE: Europa, Mitteleuropa, Deutschland, Rheinland, Bacharach
!!!SCT: K2169C
!!!YEM: Copyright 1995, estate of Helmut Schaffrath.
**kern
*ICvox
*Ivox
*M4/4
*k[f#]
*G:
=1
{4b
4b
4b
4b
=2
4b
4cc
2dd}
=3
{4ee
4cc
4b
4a
=4
2a
4g
4r}
=5
{4b
4b
4b
4b
=6
4b
4cc
2dd}
=7
{4ee
4cc
4b
4a
=8
2a
4g
4r}
=9
{2dd
2b
=10
2dd
2b
=11
2cc
2ee
=12
2dd
4r}
{4dd
=13
2dd
4b
4dd
=14
2dd
4b
4b
=15
2cc
2ee
=16
2dd
2r}
==
!!!AGN: Kinder - Lied, Reigen, Tanz - Spiel
!!!ONB: ESAC (Essen Associative Code) Database: KINDER
!!!AMT: simple quadruple
!!!AIN: vox
!!!EED: Helmut Schaffrath
!!!EEV: 1.0
*-
